X:1
T:When I Survey the Wondrous Cross
T:Text: Isaac Watts, 1707 Tune: Lowell Mason, 1824
T:LM HAMBURG www.hymnary.org/text/when_i_survey_the_wondrous_cross
T:When I Survey the Wondrous Cross
T:This hymn is in the public domain. You may freely use this score for personal and congregational worship. If you reproduce the score, please credit Hymnary.org as the source. 
T:This hymn is in the public domain. You may freely use this score for personal and congregational worship. If you reproduce the score, please credit Hymnary.org as the source. 
Z:This hymn is in the public domain. You may freely use this score for personal and congregational worship. If you reproduce the score, please credit Hymnary.org as the source.
%%score ( 1 2 ) ( 3 4 )
L:1/8
M:4/4
K:F
V:1 treble nm="SOPRANO ALTO" snm="S. A."
V:2 treble 
V:3 bass nm="TENOR BASS" snm="T. B."
V:4 bass 
V:1
"^Capo 3:""^1""^2""^3""^4""^F(D)" F4 F2"^C(A)" G2 |"^F(D)" A4"^Gm(Em)" (G2"^D(B)" A2) | %2
w: When I sur-|vey the *|
w: For- bid it,|Lord, that *|
w: See, from his|head, his *|
w: Were the whole|realm of *|
"^Gm(Em)" B4"^F(D)" (A2"^C(A)" G2) |"^F(D)" A8 | A4 A2 A2 |"^Bb(G)" B4"^F(D)" (A2"^C7(A7)" G2) | %6
w: won- drous *|cross|on which the|Prince of *|
w: I should _|boast|save in the|death of *|
w: hands, his *|feet,|sor- row and|love flow *|
w: na- ture *|mine,|that were a|pres- ent *|
"^F(D)" F4"^C7(A7)" (E2"^F(D)" F2) |"^C(A)" G8 |"^F(D)" F4 F2"^C(A)" G2 | %9
w: glo- ry *|died,|my rich- est|
w: Christ, my *|God!|All the vain|
w: min- gled *|down.|Did e'er such|
w: far too *|small.|Love so a-|
"^F(D)" A4"^Gm(Em)" (G2"^D(B)" A2) |1"^Gm(Em)" B4"^F(D)" (A2"^C(A)" G2) |"^F(D)" A8 | A4 A2 A2 | %13
w: gain I *|count but *|loss,|and pour con-|
w: things that *|charm me *|most,|I sac- ri-|
w: love and *|sor- row *|meet,|or thorns com-|
w: maz- ing, *|so di- *|vine,|de- mands my|
"^C7(A7)" G4"^Dm(Bm)" F4 |"^Gm7(Em7)" G4"^C7(A7)" (A2 G2) |"^F(D)" F8 |] %16
w: tempt on|all my *|pride.|
w: fice them|through his *|blood.|
w: pose so|rich a *|crown?|
w: soul, my|life, my *|all.|
V:2
 C4 C2 E2 | F4 (G2 ^F2) | G4 (F2 E2) | F8 | F4 F2 F2 | F4 (F2 E2) | F4 C4 | E8 | C4 C2 E2 | %9
 F4 (G2 ^F2) |1 G4 (F2 E2) | F8 | F4 F2 F2 | E4 F4 | F4 E4 | F8 |] %16
V:3
 A,4 A,2 C2 | C4 D4 | D4 C4 | C8 | C4 C2 C2 | D4 C4 | C4 (B,2 A,2) | C8 | A,4 A,2 C2 | %9
 C4 (D2 C2) |1 D4 C4 | C8 | C4 C2 C2 | (C2 B,2) A,4 | D4 (C2 B,2) | A,8 |] %16
V:4
 F,4 F,2 C,2 | F,4 (B,2 A,2) | G,4 C,4 | F,8 | F,4 F,2 F,2 | F,4 (F,2 B,2) | A,4 (G,2 F,2) | C,8 | %8
 F,4 F,2 C,2 | F,4 (B,2 A,2) |1 G,4 C,4 | F,8 | F,4 F,2 F,2 | C,4 D,4 | B,,4 C,4 | F,8 |] %16

